svgs/sharp-light/turkish-lira-sign.svg

<svg xmlns="http://www.w3.org/2000/svg" viewBox="0 0 384 512"><!--! Font Awesome Pro 6.6.0 by @fontawesome - https://fontawesome.com License - https://fontawesome.com/license (Commercial License) Copyright 2024 Fonticons, Inc. --><path d="M96 32l0 16 0 77.1L251.6 80.6 267 76.2l8.8 30.8-15.4 4.4L96 158.4l0 62.7 155.6-44.5 15.4-4.4 8.8 30.8-15.4 4.4L96 254.4 96 448l112 0c79.5 0 144-64.5 144-144l0-32 0-16 32 0 0 16 0 32c0 97.2-78.8 176-176 176L80 480l-16 0 0-16 0-200.5-27.6 7.9L21 275.8 12.2 245l15.4-4.4L64 230.2l0-62.7-27.6 7.9L21 179.8 12.2 149l15.4-4.4L64 134.2 64 48l0-16 32 0z"/></svg>

<svg xmlns="http://www.w3.org/2000/svg" viewBox="0 0 384 512"><!--! Font Awesome Pro 6.4.2 by @fontawesome - https://fontawesome.com License - https://fontawesome.com/license (Commercial License) Copyright 2023 Fonticons, Inc. --><path d="M96 32V48v77.1L251.6 80.6 267 76.2l8.8 30.8-15.4 4.4L96 158.4v62.7l155.6-44.5 15.4-4.4 8.8 30.8-15.4 4.4L96 254.4V448H208c79.5 0 144-64.5 144-144V272 256h32v16 32c0 97.2-78.8 176-176 176H80 64V464 263.5l-27.6 7.9L21 275.8 12.2 245l15.4-4.4L64 230.2V167.5l-27.6 7.9L21 179.8 12.2 149l15.4-4.4L64 134.2V48 32H96z"/></svg>
